portal/static/svg/fuel.svg

<svg fill="#ffffff" viewBox="0 -32 128 128" version="1.1" id="Layer_1" xmlns="http://www.w3.org/2000/svg"
    xmlns:xlink="http://www.w3.org/1999/xlink" style="enable-background:new 0 0 64 64" xml:space="preserve"
    transform="matrix(-1, 0, 0, 1, 0, 0)">
    <g id="SVGRepo_bgCarrier" stroke-width="0"></g>
    <g id="SVGRepo_tracerCarrier" stroke-linecap="round" stroke-linejoin="round"></g>
    <g id="SVGRepo_iconCarrier">
        <style type="text/css">
            .st0 {
                fill-rule: evenodd;
                clip-rule: evenodd;
            }
        </style>
        <g>
            <path class="st0"
                d="M6.48,10.34C4.99,10.62,3.2,6.72,4.61,6.08c22.22-12.79,24.46-2.2,46.46,2.86l0.28-0.79 c0.7-1.94,0.67-1.34,2.89-0.72l1.07,0.3c3.66,1.02,2.04,0.73,5-1.16C66.99,2.31,77.1,3.3,83.85,7.65c5.85,3.77,6.3,6.93,7.69,13.05 c1.28,5.61,19.56,22.09,31.34,33.11l-5.56,5.78l-7.73-8.05l-7.92,8.71c-2.14,2.35-3.54,4.85-7.06,4.6c-2.38-0.17-8.58-3.74-11-4.94 l-10.13-5.03c-1.82-1.73-2.68-3.98-2.5-6.81c-2.65,0.34-4.93-0.29-6.87-1.84c-6.98-5.57-3.33-9.32-4.3-15.42 c-0.07-0.42-0.15-0.85-0.26-1.27c-1.58-6.4-5.08-8.43-10.19-10.77c-1.62-0.74-1.45-0.35-0.83-2.03l0.25-0.68 C29.65,11.09,25.52,1.22,6.48,10.34L6.48,10.34z M4.04,10.16c1.01,4.47,4.04,6.7,4.04,8.93c0,2.23-1.01,4.47-4.04,4.47 C1.01,23.56,0,21.33,0,19.09C0,16.86,3.03,14.63,4.04,10.16L4.04,10.16z M77.87,41.66c0.36-1.19,0.21-2.54-0.9-3.61l4.29-3.59 c1.67-1.19,3.54-1.74,5.65-1.48c5.76,0.71,14.38,10.65,18.82,14.73l-8.59,9.72C92.13,50.22,86.47,40.79,77.87,41.66L77.87,41.66z M76.24,46.45c0.49-0.35,1.07-0.51,1.75-0.48l4.15,7.72C80.1,53.03,71.85,49.62,76.24,46.45L76.24,46.45z M81.53,45.17 c2.98,1.46,7.29,6.6,11.54,12.06c0.79,0.64-0.1,2.51-2.09,0.97l-2.61-1.39C83.54,54.08,82.99,51.5,81.53,45.17L81.53,45.17z">
            </path>
        </g>
    </g>
</svg>

<?xml version="1.0" encoding="UTF-8" standalone="no"?>
<svg
   fill="#ffffff"
   viewBox="0 -32 128 128"
   version="1.1"
   id="Layer_1"
   style="enable-background:new 0 0 64 64"
   xml:space="preserve"
   transform="matrix(-1, 0, 0, 1, 0, 0)"
   sodipodi:docname="fuel.svg"
   inkscape:version="1.1.2 (0a00cf5339, 2022-02-04)"
   xmlns:inkscape="http://www.inkscape.org/namespaces/inkscape"
   xmlns:sodipodi="http://sodipodi.sourceforge.net/DTD/sodipodi-0.dtd"
   xmlns="http://www.w3.org/2000/svg"
   xmlns:svg="http://www.w3.org/2000/svg"><defs
   id="defs56"><style
     id="style194">.cls-1{fill:none;stroke:#020202;stroke-miterlimit:10;stroke-width:1.91px;}</style><defs
     id="defs196"><style
       id="style223">.cls-1{fill:none;stroke:#020202;stroke-miterlimit:10;stroke-width:1.91px;}</style></defs></defs><sodipodi:namedview
   id="namedview54"
   pagecolor="#ffffff"
   bordercolor="#666666"
   borderopacity="1.0"
   inkscape:pageshadow="2"
   inkscape:pageopacity="0.0"
   inkscape:pagecheckerboard="true"
   showgrid="false"
   inkscape:zoom="2.0546875"
   inkscape:cx="61.56654"
   inkscape:cy="24.821293"
   inkscape:window-width="860"
   inkscape:window-height="705"
   inkscape:window-x="500"
   inkscape:window-y="0"
   inkscape:window-maximized="0"
   inkscape:current-layer="Layer_1" />
    <polygon
   class="cls-1"
   points="20.59,6.27 20.59,22.5 3.41,22.5 3.41,1.5 15.82,1.5 "
   id="polygon210"
   transform="matrix(2.2846607,-0.41760707,0.41760707,2.2846607,6.0221015,32.288396)"
   style="fill:none;stroke:#ffffff;stroke-width:1.07642;stroke-miterlimit:10;stroke-dasharray:none" /><g
   id="SVGRepo_bgCarrier"
   stroke-width="0" />
    <g
   id="SVGRepo_tracerCarrier"
   stroke-linecap="round"
   stroke-linejoin="round" />
    <g
   id="SVGRepo_iconCarrier"
   style="fill:#ffffff"
   transform="translate(4,-6)">
        <style
   type="text/css"
   id="style46">
            .st0 {
                fill-rule: evenodd;
                clip-rule: evenodd;
            }
        </style>
        <g
   id="g50"
   style="fill:#ffffff">
            <path
   class="st0"
   d="M 6.48,10.34 C 4.99,10.62 3.2,6.72 4.61,6.08 26.83,-6.71 29.07,3.88 51.07,8.94 l 0.28,-0.79 c 0.7,-1.94 0.67,-1.34 2.89,-0.72 l 1.07,0.3 c 3.66,1.02 2.04,0.73 5,-1.16 6.68,-4.26 16.79,-3.27 23.54,1.08 5.85,3.77 6.3,6.93 7.69,13.05 1.28,5.61 19.56,22.09 31.34,33.11 l -5.56,5.78 -7.73,-8.05 -7.92,8.71 c -2.14,2.35 -3.54,4.85 -7.06,4.6 -2.38,-0.17 -8.58,-3.74 -11,-4.94 L 73.48,54.88 C 71.66,53.15 70.8,50.9 70.98,48.07 68.33,48.41 66.05,47.78 64.11,46.23 57.13,40.66 60.78,36.91 59.81,30.81 59.74,30.39 59.66,29.96 59.55,29.54 57.97,23.14 54.47,21.11 49.36,18.77 47.74,18.03 47.91,18.42 48.53,16.74 l 0.25,-0.68 C 29.65,11.09 25.52,1.22 6.48,10.34 Z M 4.04,10.16 c 1.01,4.47 4.04,6.7 4.04,8.93 0,2.23 -1.01,4.47 -4.04,4.47 C 1.01,23.56 0,21.33 0,19.09 0,16.86 3.03,14.63 4.04,10.16 Z m 73.83,31.5 c 0.36,-1.19 0.21,-2.54 -0.9,-3.61 l 4.29,-3.59 c 1.67,-1.19 3.54,-1.74 5.65,-1.48 5.76,0.71 14.38,10.65 18.82,14.73 l -8.59,9.72 C 92.13,50.22 86.47,40.79 77.87,41.66 Z m -1.63,4.79 c 0.49,-0.35 1.07,-0.51 1.75,-0.48 l 4.15,7.72 C 80.1,53.03 71.85,49.62 76.24,46.45 Z m 5.29,-1.28 c 2.98,1.46 7.29,6.6 11.54,12.06 0.79,0.64 -0.1,2.51 -2.09,0.97 L 88.37,56.81 C 83.54,54.08 82.99,51.5 81.53,45.17 Z"
   id="path48"
   style="fill:#ffffff">
            </path>
        </g>
    </g>
<g
   id="SVGRepo_bgCarrier-6"
   stroke-width="0"
   transform="matrix(2.1774656,-0.39801316,0.39801316,2.1774656,9.1003443,29.17129)" /><g
   id="SVGRepo_tracerCarrier-7"
   stroke-linecap="round"
   stroke-linejoin="round"
   transform="matrix(2.1774656,-0.39801316,0.39801316,2.1774656,9.1003443,29.17129)" /><polyline
   class="cls-1"
   points="13.91 10.09 14.86 11.04 16.77 9.14"
   id="polyline198"
   transform="matrix(2.2846607,-0.41760707,0.41760707,2.2846607,6.0221015,32.288396)"
   style="stroke:#ffffff" /><polyline
   class="cls-1"
   points="13.91 13.91 14.86 14.86 16.77 12.96"
   id="polyline200"
   transform="matrix(2.2846607,-0.41760707,0.41760707,2.2846607,6.0221015,32.288396)"
   style="fill:none;stroke:#ffffff" /><line
   class="cls-1"
   x1="27.154758"
   y1="54.514595"
   x2="35.88216"
   y2="52.919338"
   id="line202"
   style="fill:none;stroke:#ffffff" /><line
   class="cls-1"
   x1="28.74584"
   y1="63.219154"
   x2="37.473244"
   y2="61.623894"
   id="line204"
   style="fill:none;stroke:#ffffff" /><polyline
   class="cls-1"
   points="13.91 17.73 14.86 18.68 16.77 16.77"
   id="polyline206"
   transform="matrix(2.2846607,-0.41760707,0.41760707,2.2846607,6.0221015,32.288396)"
   style="fill:none;stroke:#ffffff" /><line
   class="cls-1"
   x1="30.341099"
   y1="71.946556"
   x2="39.068504"
   y2="70.351303"
   id="line208"
   style="fill:none;stroke:#ffffff" /><polygon
   class="cls-1"
   points="20.59,6.27 20.59,7.23 14.86,7.23 14.86,1.5 15.82,1.5 "
   id="polygon212"
   transform="matrix(2.2846607,-0.41760707,0.41760707,2.2846607,6.0221015,32.288396)"
   style="fill:none;stroke:#ffffff;stroke-width:1.07642;stroke-miterlimit:10;stroke-dasharray:none" /></svg>
